; generated by PrusaSlicer 2.9.2 on 2025-07-02 at 07:34:40 UTC

; 

; external perimeters extrusion width = 0.45mm
; perimeters extrusion width = 0.45mm
; infill extrusion width = 0.45mm
; solid infill extrusion width = 0.45mm
; top infill extrusion width = 0.40mm
; first layer extrusion width = 0.70mm

M190 S80 ; set bed temperature and wait for it to be reached
M104 S240 ; set temperature
;TYPE:Custom
G28 ; home all axes
G1 Z5 F5000 ; lift nozzle
M109 S240 ; set temperature and wait for it to be reached
G21 ; set units to millimeters
G90 ; use absolute coordinates
M82 ; use absolute distances for extrusion
G92 E0 ; reset extrusion distance
; Filament gcode
M107 ; disable fan
;LAYER_CHANGE
;Z:0.35
;HEIGHT:0.35
G1 E-2 F2400 ; retract
G92 E0 ; reset extrusion distance
G1 Z.35 F7800 ; lift
G1 X88.809 Y53.145 ; move to first layer point
G1 E2 F2400 ;  ; unretract
;TYPE:Skirt/Brim
;WIDTH:0.7
G1 F1800
G1 X91.21 Y51.081 E2.2879 ; skirt
G1 X92.356 Y50.517 E2.40404 ; skirt
G1 X93.571 Y50.068 E2.52182 ; skirt
G1 X95.286 Y49.834 E2.67921 ; skirt
G1 X104.486 Y49.834 E3.51576 ; skirt
G1 X105.997 Y50.017 E3.65416 ; skirt
G1 X107.415 Y50.517 E3.79088 ; skirt
G1 X108.562 Y51.081 E3.9071 ; skirt
G1 X110.364 Y52.408 E4.11059 ; skirt
G1 X111.893 Y55.181 E4.39853 ; skirt
G1 X112.117 Y56.299 E4.50221 ; skirt
G1 X112.142 Y57.67 E4.6269 ; skirt
G1 X110.676 Y77.522 E6.43695 ; skirt
G1 X110.337 Y79.146 E6.5878 ; skirt
G1 X109.565 Y80.699 E6.7455 ; skirt
G1 X108.019 Y82.317 E6.94899 ; skirt
G1 X106.208 Y83.233 E7.13353 ; skirt
G1 X104.666 Y83.721 E7.2806 ; skirt
G1 X102.757 Y84.016 E7.45624 ; skirt
G1 X97.009 Y84.014 E7.9789 ; skirt
G1 X95.107 Y83.719 E8.15392 ; skirt
G1 X93.565 Y83.231 E8.30099 ; skirt
G1 X91.585 Y82.188 E8.50448 ; skirt
G1 X90.203 Y80.692 E8.68967 ; skirt
G1 X89.407 Y79.063 E8.85453 ; skirt
G1 X89.097 Y77.522 E8.99746 ; skirt
G1 X87.63 Y57.67 E10.80752 ; skirt
G1 X87.643 Y56.407 E10.92237 ; skirt
G1 X87.879 Y55.181 E11.0359 ; skirt
G1 X88.785 Y53.2 E11.23398 ; skirt
G1 E9.23398 F2400 ; retract
G92 E0 ; reset extrusion distance
G92 E0 ; reset extrusion distance
G1 X104.141 Y76.938 F7800 ; move to first perimeter point
G1 E2 F2400 ;  ; unretract
;TYPE:External perimeter
;WIDTH:0.504725
G1 F1800
G1 X104.088 Y76.938 E2.00331 ; perimeter
G1 X104.061 Y76.985 E2.0067 ; perimeter
G1 X104.088 Y77.031 E2.01003 ; perimeter
G1 X104.141 Y77.031 E2.01334 ; perimeter
G1 X104.168 Y76.985 E2.01667 ; perimeter
G1 X102.76 Y77.38 F7800 ; move to first perimeter point
;WIDTH:0.521343
G1 F1800
G1 X102.704 Y77.38 E2.02031 ; perimeter
G1 X102.676 Y77.428 E2.02392 ; perimeter
G1 X102.704 Y77.476 E2.02753 ; perimeter
G1 X102.76 Y77.476 E2.03117 ; perimeter
G1 X102.787 Y77.428 E2.03475 ; perimeter
G1 E.03475 F2400 ; retract
G92 E0 ; reset extrusion distance
G1 X97.067 Y77.379 F7800 ; move to first perimeter point
G1 E2 F2400 ;  ; unretract
;WIDTH:0.519323
G1 F1800
G1 X97.012 Y77.379 E2.00356 ; perimeter
G1 X96.984 Y77.427 E2.00715 ; perimeter
G1 X97.012 Y77.475 E2.01074 ; perimeter
G1 X97.067 Y77.475 E2.0143 ; perimeter
G1 X97.095 Y77.427 E2.01789 ; perimeter
G1 X95.684 Y76.938 F7800 ; move to first perimeter point
;WIDTH:0.502961
G1 F1800
G1 X95.631 Y76.938 E2.02119 ; perimeter
G1 X95.604 Y76.984 E2.02451 ; perimeter
G1 X95.631 Y77.031 E2.02788 ; perimeter
G1 X95.684 Y77.031 E2.03118 ; perimeter
G1 X95.711 Y76.984 E2.03455 ; perimeter
G1 E.03455 F2400 ; retract
G92 E0 ; reset extrusion distance
G1 X96.527 Y56.88 F7800 ; move to first perimeter point
G1 E2 F2400 ;  ; unretract
;WIDTH:0.470535
G1 F1800
G1 X96.556 Y56.633 E2.01431 ; perimeter
G1 E.01431 F2400 ; retract
G92 E0 ; reset extrusion distance
G1 X94.165 Y57.05 F7800 ; move to first perimeter point
G1 E2 F2400 ;  ; unretract
;WIDTH:0.415111
G1 F1800
G1 X94.101 Y57.087 E2.00366 ; perimeter
G1 X94.165 Y57.123 E2.00729 ; perimeter
G1 X94.186 Y57.087 E2.00935 ; perimeter
G1 E.00935 F2400 ; retract
G92 E0 ; reset extrusion distance
G1 X95.227 Y59.062 F7800 ; move to first perimeter point
G1 E2 F2400 ;  ; unretract
;WIDTH:0.661253
G1 F1800
G1 X95.22 Y59.272 E2.01792 ; perimeter
G1 X94.447 Y58.997 F7800 ; move to first perimeter point
;WIDTH:0.636063
G1 F1800
G1 X94.506 Y59.245 E2.03873 ; perimeter
;WIDTH:0.590556
G1 X94.565 Y59.493 E2.05785 ; perimeter
;WIDTH:0.546573
G1 X94.566 Y59.505 E2.05868 ; perimeter
G1 X96.022 Y59.483 F7800 ; move to first perimeter point
;WIDTH:0.653491
G1 F1800
G1 X96.051 Y59.61 E2.06964 ; perimeter
;WIDTH:0.616096
G1 X96.079 Y59.736 E2.0798 ; perimeter
;WIDTH:0.578701
G1 X96.108 Y59.863 E2.08935 ; perimeter
;WIDTH:0.541306
G1 X96.354 Y60.138 E2.11438 ; perimeter
;WIDTH:0.511575
G1 X96.494 Y60.202 E2.12416 ; perimeter
G1 X96.499 Y60.182 E2.12547 ; perimeter
;WIDTH:0.471697
G1 X96.505 Y60.162 E2.12667 ; perimeter
;WIDTH:0.431819
G1 X96.51 Y60.142 E2.12774 ; perimeter
;WIDTH:0.392048
G1 X96.992 Y60.158 E2.14998 ; perimeter
G1 X97.098 Y60.298 E2.15808 ; perimeter
G1 X96.94 Y60.438 E2.16782 ; perimeter
G1 X96.751 Y60.457 E2.17658 ; perimeter
;WIDTH:0.391941
G1 X96.476 Y60.371 E2.18986 ; perimeter
;WIDTH:0.431819
G1 X96.476 Y60.35 E2.19095 ; perimeter
;WIDTH:0.471697
G1 X96.476 Y60.33 E2.1921 ; perimeter
;WIDTH:0.511575
G1 X96.477 Y60.309 E2.19344 ; perimeter
G1 X96.352 Y60.315 E2.20139 ; perimeter
G1 X95.927 Y60.463 E2.22997 ; perimeter
G1 X95.883 Y60.258 E2.24329 ; perimeter
;WIDTH:0.541306
G1 X95.781 Y60.129 E2.25445 ; perimeter
;WIDTH:0.576693
G1 X95.637 Y60.128 E2.26496 ; perimeter
;WIDTH:0.61208
G1 X95.493 Y60.127 E2.27621 ; perimeter
;WIDTH:0.647467
G1 X95.349 Y60.126 E2.2882 ; perimeter
;WIDTH:0.684114
G1 X95.274 Y60.19 E2.29694 ; perimeter
G1 X95.197 Y60.497 E2.32499 ; perimeter
G1 X95.076 Y60.427 E2.33738 ; perimeter
G1 X94.818 Y60.349 E2.36127 ; perimeter
G1 X94.692 Y60.049 E2.39011 ; perimeter
G1 X94.651 Y59.886 E2.405 ; perimeter
;WIDTH:0.644729
G1 X94.61 Y59.724 E2.41885 ; perimeter
;WIDTH:0.605344
G1 X94.57 Y59.562 E2.43172 ; perimeter
;WIDTH:0.585903
G1 X94.588 Y59.612 E2.43567 ; perimeter
;WIDTH:0.635008
G1 X94.731 Y59.687 E2.44883 ; perimeter
;WIDTH:0.684114
G1 X94.875 Y59.762 E2.46322 ; perimeter
G1 X94.964 Y59.702 E2.47273 ; perimeter
;WIDTH:0.658672
G1 X95.202 Y59.34 E2.50952 ; perimeter
G1 X95.381 Y59.729 E2.54588 ; perimeter
;WIDTH:0.647467
G1 X95.501 Y59.73 E2.55587 ; perimeter
;WIDTH:0.61208
G1 X95.621 Y59.731 E2.56525 ; perimeter
;WIDTH:0.576693
G1 X95.741 Y59.733 E2.57401 ; perimeter
;WIDTH:0.578701
G1 X95.835 Y59.649 E2.58325 ; perimeter
;WIDTH:0.616096
G1 X95.929 Y59.566 E2.59312 ; perimeter
;WIDTH:0.653491
G1 X95.977 Y59.523 E2.59854 ; perimeter
G1 X96.124 Y59.895 F7800 ; move inwards before travel
G1 X97.54 Y59.72 ; move to first perimeter point
;WIDTH:0.415111
G1 F1800
G1 X97.476 Y59.756 E2.60217 ; perimeter
G1 X97.54 Y59.793 E2.60583 ; perimeter
G1 X97.561 Y59.756 E2.60793 ; perimeter
G1 E.60793 F2400 ; retract
G92 E0 ; reset extrusion distance
G1 X102.285 Y59.728 F7800 ; move to first perimeter point
G1 E2 F2400 ;  ; unretract
G1 F1800
G1 X102.221 Y59.765 E2.00366 ; perimeter
G1 X102.285 Y59.802 E2.00732 ; perimeter
G1 X102.306 Y59.765 E2.00942 ; perimeter
G1 E.00942 F2400 ; retract
G92 E0 ; reset extrusion distance
G1 X105.206 Y59.502 F7800 ; move to first perimeter point
G1 E2 F2400 ;  ; unretract
;WIDTH:0.583059
G1 F1800
G1 X105.27 Y59.248 E2.01936 ; perimeter
;WIDTH:0.620123
G1 X105.333 Y58.994 E2.04011 ; perimeter
G1 X104.544 Y59.062 F7800 ; move to first perimeter point
;WIDTH:0.661257
G1 F1800
G1 X104.552 Y59.272 E2.05803 ; perimeter
G1 X105.202 Y59.562 F7800 ; move to first perimeter point
;WIDTH:0.586558
G1 F1800
G1 X105.207 Y59.621 E2.06244 ; perimeter
;WIDTH:0.635335
G1 X105.099 Y59.956 E2.09113 ; perimeter
;WIDTH:0.684112
G1 X104.992 Y60.291 E2.12229 ; perimeter
G1 X104.901 Y60.362 E2.13252 ; perimeter
G1 X104.575 Y60.497 E2.16379 ; perimeter
G1 X104.532 Y60.282 E2.18322 ; perimeter
G1 X104.438 Y60.139 E2.19839 ; perimeter
;WIDTH:0.649561
G1 X104.289 Y60.136 E2.21085 ; perimeter
;WIDTH:0.613476
G1 X104.14 Y60.133 E2.22252 ; perimeter
;WIDTH:0.577391
G1 X103.991 Y60.129 E2.23341 ; perimeter
;WIDTH:0.541307
G1 X103.898 Y60.209 E2.24173 ; perimeter
G1 X103.845 Y60.463 E2.25933 ; perimeter
;WIDTH:0.511576
G1 X103.295 Y60.309 E2.2956 ; perimeter
G1 X103.297 Y60.328 E2.29681 ; perimeter
;WIDTH:0.473147
G1 X103.3 Y60.348 E2.29798 ; perimeter
;WIDTH:0.434718
G1 X103.302 Y60.367 E2.29898 ; perimeter
;WIDTH:0.396289
G1 X102.975 Y60.465 E2.31493 ; perimeter
G1 X102.789 Y60.415 E2.32393 ; perimeter
;WIDTH:0.394777
G1 X102.676 Y60.297 E2.33153 ; perimeter
G1 X102.78 Y60.159 E2.33957 ; perimeter
;WIDTH:0.396289
G1 X103.261 Y60.145 E2.36206 ; perimeter
;WIDTH:0.434718
G1 X103.267 Y60.164 E2.3631 ; perimeter
;WIDTH:0.473147
G1 X103.273 Y60.183 E2.36425 ; perimeter
;WIDTH:0.511576
G1 X103.278 Y60.202 E2.3655 ; perimeter
G1 X103.395 Y60.158 E2.37344 ; perimeter
;WIDTH:0.541307
G1 X103.664 Y59.863 E2.40052 ; perimeter
;WIDTH:0.578703
G1 X103.692 Y59.736 E2.41005 ; perimeter
;WIDTH:0.616099
G1 X103.721 Y59.61 E2.42023 ; perimeter
;WIDTH:0.653495
G1 X103.749 Y59.483 E2.43118 ; perimeter
G1 X103.843 Y59.566 E2.44173 ; perimeter
;WIDTH:0.616099
G1 X103.937 Y59.649 E2.4516 ; perimeter
;WIDTH:0.578703
G1 X104.03 Y59.733 E2.46078 ; perimeter
;WIDTH:0.576694
G1 X104.15 Y59.731 E2.46954 ; perimeter
;WIDTH:0.612081
G1 X104.271 Y59.73 E2.47899 ; perimeter
;WIDTH:0.647468
G1 X104.391 Y59.729 E2.48898 ; perimeter
;WIDTH:0.661257
G1 X104.552 Y59.272 E2.53031 ; perimeter
G1 X104.72 Y59.6 E2.56174 ; perimeter
;WIDTH:0.684112
G1 X104.868 Y59.753 E2.5806 ; perimeter
G1 X105.026 Y59.683 E2.59591 ; perimeter
;WIDTH:0.635335
G1 X105.178 Y59.615 E2.60948 ; perimeter
G1 X105.089 Y60.005 F7800 ; move inwards before travel
G1 E.60948 F2400 ; retract
G92 E0 ; reset extrusion distance
G1 X105.649 Y57.05 F7800 ; move to first perimeter point
G1 E2 F2400 ;  ; unretract
;WIDTH:0.415111
G1 F1800
G1 X105.585 Y57.087 E2.00366 ; perimeter
G1 X105.649 Y57.123 E2.00729 ; perimeter
G1 X105.67 Y57.087 E2.00935 ; perimeter
G1 E.00935 F2400 ; retract
G92 E0 ; reset extrusion distance
G1 X103.25 Y56.879 F7800 ; move to first perimeter point
G1 E2 F2400 ;  ; unretract
;WIDTH:0.472571
G1 F1800
G1 X103.229 Y56.636 E2.01411 ; perimeter
;LAYER_CHANGE
;Z:0.65
;HEIGHT:0.3
G1 E.01411 F2400 ; retract
G92 E0 ; reset extrusion distance
G1 Z.65 F7800 ; simple layer change
M104 S200 ; set temperature
G1 X105.595 Y57.527 ; travel to first layer point
G1 E2 F2400 ;  ; unretract
;TYPE:Overhang perimeter
;WIDTH:0.4
;HEIGHT:0.4
G1 F900
G1 X105.437 Y58.458 E2.04934 ; perimeter (bridge)
G1 X105.635 Y56.947 F7800 ; move to first perimeter point
;TYPE:External perimeter
;WIDTH:0.723841
;HEIGHT:0.3
G1 F900
G1 X105.618 Y56.905 E2.05307 ; perimeter
;WIDTH:0.693491
G1 X105.628 Y56.846 E2.05777 ; perimeter
;WIDTH:0.645752
G1 X105.637 Y56.788 E2.06203 ; perimeter
;WIDTH:0.598013
G1 X105.647 Y56.73 E2.06595 ; perimeter
;WIDTH:0.550274
G1 X105.656 Y56.671 E2.06957 ; perimeter
;WIDTH:0.502536
G1 X105.666 Y56.613 E2.07279 ; perimeter
;WIDTH:0.454797
G1 X105.675 Y56.555 E2.07565 ; perimeter
;WIDTH:0.407058
G1 X105.685 Y56.496 E2.07821 ; perimeter
;TYPE:Overhang perimeter
;WIDTH:0.4
;HEIGHT:0.4
G1 X105.701 Y56.396 E2.0835 ; perimeter (bridge)
G1 X104.506 Y56.89 F7800 ; move to first perimeter point
;TYPE:External perimeter
;WIDTH:0.572022
;HEIGHT:0.3
G1 F900
G1 X104.509 Y56.96 E2.08794 ; perimeter
;TYPE:Overhang perimeter
;WIDTH:0.4
;HEIGHT:0.4
G1 X104.539 Y58.126 E2.14888 ; perimeter (bridge)
G1 X104.528 Y57.726 F7800 ; move inwards before travel
G1 X103.328 Y57.322 ; move to first perimeter point
;TYPE:External perimeter
;WIDTH:0.634513
;HEIGHT:0.3
G1 F900
G1 X103.329 Y57.327 E2.14924 ; perimeter
;TYPE:Overhang perimeter
;WIDTH:0.4
;HEIGHT:0.4
G1 X103.517 Y58.405 E2.20641 ; perimeter (bridge)
G1 X103.448 Y58.011 F7800 ; move inwards before travel
G1 X103.425 Y56.917 ; move to first perimeter point
;TYPE:External perimeter
;WIDTH:0.414766
;HEIGHT:0.3
G1 F900
G1 X103.409 Y56.985 E2.20946 ; perimeter
;WIDTH:0.457785
G1 X103.393 Y57.052 E2.21284 ; perimeter
;WIDTH:0.500805
G1 X103.376 Y57.12 E2.21666 ; perimeter
;WIDTH:0.543824
G1 X103.36 Y57.187 E2.22078 ; perimeter
;WIDTH:0.586843
G1 X103.344 Y57.254 E2.22527 ; perimeter
;WIDTH:0.629863
G1 X103.328 Y57.322 E2.2302 ; perimeter
G1 X103.294 Y57.261 E2.23513 ; perimeter
;WIDTH:0.586843
G1 X103.259 Y57.201 E2.23966 ; perimeter
;WIDTH:0.543824
G1 X103.225 Y57.14 E2.24384 ; perimeter
;WIDTH:0.500805
G1 X103.19 Y57.08 E2.24762 ; perimeter
;WIDTH:0.457785
G1 X103.156 Y57.019 E2.25105 ; perimeter
;WIDTH:0.414766
G1 X103.121 Y56.959 E2.25409 ; perimeter
;WIDTH:0.386469
G1 X103.071 Y56.614 E2.26809 ; perimeter
G1 X103.137 Y56.477 E2.2742 ; perimeter
G1 X103.141 Y56.185 E2.28593 ; perimeter
G1 X103.196 Y56.422 E2.2957 ; perimeter
G1 X103.283 Y56.58 E2.30295 ; perimeter
G1 X103.376 Y56.594 E2.30673 ; perimeter
G1 X103.416 Y56.858 E2.31746 ; perimeter
G1 X103.342 Y57.251 F7800 ; move inwards before travel
G1 X104.664 Y56.46 ; move to first perimeter point
;WIDTH:0.447774
G1 F900
G1 X104.624 Y56.568 E2.32297 ; perimeter
;WIDTH:0.488312
G1 X104.585 Y56.675 E2.32899 ; perimeter
;WIDTH:0.52885
G1 X104.546 Y56.782 E2.33559 ; perimeter
;WIDTH:0.569389
G1 X104.506 Y56.89 E2.34284 ; perimeter
G1 X104.451 Y56.786 E2.35025 ; perimeter
;WIDTH:0.520951
G1 X104.396 Y56.681 E2.357 ; perimeter
;WIDTH:0.472513
G1 X104.341 Y56.577 E2.36299 ; perimeter
;WIDTH:0.424075
G1 X104.304 Y56.226 E2.37882 ; perimeter
;WIDTH:0.409882
G1 X104.367 Y56.198 E2.38179 ; perimeter
G1 X104.471 Y55.953 E2.39326 ; perimeter
G1 X104.54 Y56.148 E2.40217 ; perimeter
G1 X104.658 Y56.256 E2.40906 ; perimeter
G1 X104.662 Y56.401 E2.41531 ; perimeter
G1 X104.543 Y56.782 F7800 ; move inwards before travel
G1 E.41531 F2400 ; retract
G92 E0 ; reset extrusion distance
G1 X104.08 Y60.169 F7800 ; move to first perimeter point
G1 E2 F2400 ;  ; unretract
;TYPE:Perimeter
;WIDTH:0.456657
G1 F900
G1 X104.285 Y60.163 E2.01003 ; perimeter
G1 X104.554 Y60.079 E2.02382 ; perimeter
G1 X104.477 Y60.628 E2.05094 ; perimeter
G1 X104.257 Y60.563 E2.06216 ; perimeter
G1 X103.972 Y60.327 E2.08026 ; perimeter
G1 X104.046 Y60.218 E2.08671 ; perimeter
G1 X103.859 Y59.705 F7800 ; move to first perimeter point
;WIDTH:0.45
G1 F900
G1 X104.132 Y59.785 E2.10039 ; perimeter
G1 X104.338 Y59.749 E2.11045 ; perimeter
G1 X104.578 Y59.583 E2.12449 ; perimeter
G1 X104.659 Y59.449 E2.13202 ; perimeter
G1 X104.809 Y59.496 E2.13958 ; perimeter
G1 X105.097 Y59.486 E2.15344 ; perimeter
G1 X104.923 Y60.217 E2.18958 ; perimeter
G1 X104.822 Y60.987 E2.22693 ; perimeter
;TYPE:Overhang perimeter
;WIDTH:0.4
;HEIGHT:0.4
G1 X104.811 Y61.071 E2.23136 ; perimeter (bridge)
G1 X104.774 Y61.127 E2.23487 ; perimeter (bridge)
G1 X104.65 Y61.08 E2.2418 ; perimeter (bridge)
;TYPE:Perimeter
;WIDTH:0.45
;HEIGHT:0.3
G1 X104.299 Y60.946 E2.25987 ; perimeter
G1 X104.205 Y60.956 E2.26442 ; perimeter
;TYPE:Overhang perimeter
;WIDTH:0.4
;HEIGHT:0.4
G1 X104.146 Y60.961 E2.26751 ; perimeter (bridge)
G1 X104.089 Y60.916 E2.2713 ; perimeter (bridge)
;TYPE:Perimeter
;WIDTH:0.45
;HEIGHT:0.3
G1 X103.294 Y60.336 E2.31863 ; perimeter
G1 X103.499 Y60.237 E2.32958 ; perimeter
G1 X103.708 Y60.035 E2.34356 ; perimeter
G1 X103.834 Y59.759 E2.35815 ; perimeter
G1 X105.084 Y59.094 F7800 ; move to first perimeter point
;TYPE:External perimeter
G1 F900
G1 X105.211 Y58.971 E2.36665 ; perimeter
;WIDTH:0.490519
G1 X105.432 Y58.47 E2.39575 ; perimeter
;TYPE:Overhang perimeter
;WIDTH:0.4
;HEIGHT:0.4
G1 X105.437 Y58.458 E2.39643 ; perimeter (bridge)
G1 X105.439 Y58.473 E2.39722 ; perimeter (bridge)
;TYPE:External perimeter
;WIDTH:0.511895
;HEIGHT:0.3
G1 X105.448 Y58.553 E2.40171 ; perimeter
;WIDTH:0.47573
G1 X105.513 Y59.247 E2.43747 ; perimeter
;WIDTH:0.45
G1 X105.225 Y60.836 E2.51514 ; perimeter
;TYPE:Overhang perimeter
;WIDTH:0.4
;HEIGHT:0.4
G1 X105.161 Y61.265 E2.5378 ; perimeter (bridge)
G1 X105.029 Y61.417 E2.54832 ; perimeter (bridge)
G1 X104.795 Y61.522 E2.56172 ; perimeter (bridge)
G1 X104.52 Y61.517 E2.57609 ; perimeter (bridge)
G1 X104.43 Y61.404 E2.58364 ; perimeter (bridge)
